Sources/FrostedUI/Resources/Icons.xcassets/cubeSize32.imageset/cube-size-32.svg

<svg
  width="32"
  height="32"
  viewBox="0 0 32 32"
  fill="none"
  xmlns="http://www.w3.org/2000/svg"
  data-fui-icon="true"
>
  <path
    d="M16.0003 16V27.3333M16.0003 16L6 10.375M16.0003 16L25.6836 10.553M27 11.3721V20.6279C27 21.5913 26.4804 22.4797 25.6407 22.9521L17.3073 27.6396C16.4956 28.0963 15.5044 28.0963 14.6927 27.6396L6.35931 22.9521C5.51963 22.4797 5 21.5913 5 20.6279V11.3721C5 10.4087 5.51963 9.52018 6.35931 9.04786L14.6927 4.36037C15.5044 3.90374 16.4956 3.90374 17.3073 4.36037L25.6407 9.04786C26.4804 9.52018 27 10.4087 27 11.3721Z"
    stroke="currentColor"
    stroke-width="1.5"
    stroke-linecap="round"
    stroke-linejoin="round"
  />
</svg>

<svg xmlns="http://www.w3.org/2000/svg" width="32" height="32" fill="none" data-fui-icon="true" viewBox="0 0 32 32"><path stroke="currentColor" stroke-linecap="round" stroke-linejoin="round" stroke-width="1.5" d="M16 16v11.333M16 16 6 10.375M16 16l9.684-5.447m1.316.82v9.255c0 .963-.52 1.852-1.36 2.324l-8.333 4.688a2.67 2.67 0 0 1-2.614 0l-8.334-4.688A2.67 2.67 0 0 1 5 20.628v-9.256c0-.963.52-1.852 1.36-2.324l8.333-4.688a2.67 2.67 0 0 1 2.614 0l8.334 4.688c.84.472 1.359 1.36 1.359 2.324"/></svg>
